icons/svgs/arrow-right-long-outline.svg

<svg width="24" height="24" viewBox="0 0 24 24" fill="none" xmlns="http://www.w3.org/2000/svg">
<path d="M21.7266 12.6641L16.4141 17.9766C16.0234 18.3672 15.4375 18.3672 15.0859 17.9766C14.6953 17.625 14.6953 17.0391 15.0859 16.6484L18.7969 12.9375H2.9375C2.39062 12.9375 2 12.5469 2 12C2 11.4922 2.39062 11.0625 2.9375 11.0625H18.7969L15.0859 7.35156C14.6953 7 14.6953 6.41406 15.0859 6.02344C15.4375 5.67188 16.0234 5.67188 16.4141 6.02344L21.7266 11.375C22.0781 11.7266 22.0781 12.3125 21.7266 12.6641Z" fill="black"/>
</svg>

<svg xmlns="http://www.w3.org/2000/svg" width="24" height="24" fill="currentColor" class="icon-arrow-right-long-outline" viewBox="0 0 24 24">
  <mask id="a" width="20" height="14" x="2" y="5" maskUnits="userSpaceOnUse" style="mask-type:alpha">
    <path d="m21.727 12.664-5.313 5.313c-.39.39-.977.39-1.328 0-.39-.352-.39-.938 0-1.329l3.71-3.71H2.939C2.39 12.938 2 12.547 2 12c0-.508.39-.937.938-.937h15.859l-3.711-3.711c-.39-.352-.39-.938 0-1.329.351-.351.937-.351 1.328 0l5.313 5.352a.92.92 0 0 1 0 1.29"/>
  </mask>
  <g mask="url(#a)">
    <path d="M0 0h24v24H0z"/>
  </g>
</svg>
